/* 「きらきら星」 フランス民謡 武鹿悦子作詞 */

$E"SJIS"; T120L4O4

$K""; CCGGAAG2 FFEEDDC2
$K""; GGFFEED2 GGFFEED2
$K""; CCGGAAG2 FFEEDDC2
$K""; R1

$K""; CCGGAAG2 FFEEDDC2
$K""; GGFFEED2 GGFFEED2
$K""; CCGGAAG2 FFEEDDC2
$K""; R1 R1